synths/sFIL.svg

<svg width="480" height="480" viewBox="0 0 480 480" fill="none" xmlns="http://www.w3.org/2000/svg">
<mask id="mask0-123771" mask-type="alpha" maskUnits="userSpaceOnUse" x="0" y="0" width="480" height="480">
<circle cx="240" cy="240" r="240" fill="url(#paint0_linear-011954)"/>
</mask>
<g mask="url(#mask0-123771)">
<circle cx="240" cy="240" r="240" fill="#31D8A4"/>
<circle cx="240" cy="240" r="208" fill="white"/>
</g>
<circle cx="240" cy="240" r="184" fill="#0E052F"/>
<path fill-rule="evenodd" clip-rule="evenodd" d="M240 424.008C138.8 424.008 56 341.208 56 239.088C56.92 137.888 138.8 55.0876 240.92 56.0076C342.12 56.9276 424 138.808 424 241.848C423.08 342.128 341.2 424.008 240 424.008Z" fill="#0090FF"/>
<path fill-rule="evenodd" clip-rule="evenodd" d="M257.48 217.927L251.96 247.367L304.4 254.727L300.72 268.527L249.2 261.167C245.52 273.127 243.68 286.007 239.08 297.047C234.48 309.927 229.88 322.807 224.36 334.767C217 350.407 204.12 361.447 186.64 364.207C176.52 366.047 165.48 365.127 157.2 358.687C154.44 356.847 151.68 353.167 151.68 350.407C151.68 346.727 153.52 342.127 156.28 340.287C158.12 339.367 162.72 340.287 165.48 341.207C168.24 343.967 171 347.647 172.84 351.327C178.36 358.687 185.72 359.607 193.08 354.087C201.36 346.727 205.96 336.607 208.72 326.487C214.24 304.407 219.76 283.247 224.36 261.167V257.487L175.6 250.127L177.44 236.327L228.04 243.687L234.48 215.167L182.04 206.887L183.88 192.167L238.16 199.527C240 194.007 240.92 189.407 242.76 184.807C247.36 168.247 251.96 151.687 263 136.967C274.04 122.247 286.92 113.047 306.24 113.967C314.52 113.967 322.8 116.727 328.32 123.167C329.24 124.087 331.08 125.927 331.08 127.767C331.08 131.447 331.08 136.047 328.32 138.807C324.64 141.567 320.04 140.647 316.36 136.967C313.6 134.207 311.76 131.447 309 128.687C303.48 121.327 295.2 120.407 288.76 126.847C284.16 131.447 279.56 137.887 276.8 144.327C270.36 163.647 265.76 183.887 259.32 204.127L309.92 211.487L306.24 225.287L257.48 217.927Z" fill="white"/>
<defs>
<linearGradient id="paint0_linear-011954" x1="240" y1="0" x2="240" y2="701.818" gradientUnits="userSpaceOnUse">
<stop stop-color="#08021E"/>
<stop offset="1" stop-color="#1F0777"/>
</linearGradient>
</defs>
</svg>

<svg width="480" height="480" viewBox="0 0 480 480" fill="none" xmlns="http://www.w3.org/2000/svg"><mask id="mask0-123771" maskUnits="userSpaceOnUse" x="0" y="0" width="480" height="480"><circle cx="240" cy="240" r="240" fill="url(#paint0_linear-011954)"/></mask><g mask="url(#mask0-123771)"><circle cx="240" cy="240" r="240" fill="#31D8A4"/><circle cx="240" cy="240" r="208" fill="#fff"/></g><circle cx="240" cy="240" r="184" fill="#0E052F"/><path fill-rule="evenodd" clip-rule="evenodd" d="M240 424.008c-101.2 0-184-82.8-184-184.92.92-101.2 82.8-184 184.92-183.08 101.2.92 183.08 82.8 183.08 185.84-.92 100.28-82.8 182.16-184 182.16z" fill="#0090FF"/><path fill-rule="evenodd" clip-rule="evenodd" d="M257.48 217.927l-5.52 29.44 52.44 7.36-3.68 13.8-51.52-7.36c-3.68 11.96-5.52 24.84-10.12 35.88-4.6 12.88-9.2 25.76-14.72 37.72-7.36 15.64-20.24 26.68-37.72 29.44-10.12 1.84-21.16.92-29.44-5.52-2.76-1.84-5.52-5.52-5.52-8.28 0-3.68 1.84-8.28 4.6-10.12 1.84-.92 6.44 0 9.2.92 2.76 2.76 5.52 6.44 7.36 10.12 5.52 7.36 12.88 8.28 20.24 2.76 8.28-7.36 12.88-17.48 15.64-27.6 5.52-22.08 11.04-43.24 15.64-65.32v-3.68l-48.76-7.36 1.84-13.8 50.6 7.36 6.44-28.52-52.44-8.28 1.84-14.72 54.28 7.36c1.84-5.52 2.76-10.12 4.6-14.72 4.6-16.56 9.2-33.12 20.24-47.84 11.04-14.72 23.92-23.92 43.24-23 8.28 0 16.56 2.76 22.08 9.2.92.92 2.76 2.76 2.76 4.6 0 3.68 0 8.28-2.76 11.04-3.68 2.76-8.28 1.84-11.96-1.84-2.76-2.76-4.6-5.52-7.36-8.28-5.52-7.36-13.8-8.28-20.24-1.84-4.6 4.6-9.2 11.04-11.96 17.48-6.44 19.32-11.04 39.56-17.48 59.8l50.6 7.36-3.68 13.8-48.76-7.36z" fill="#fff"/><defs><linearGradient id="paint0_linear-011954" x1="240" y1="0" x2="240" y2="701.818" gradientUnits="userSpaceOnUse"><stop stop-color="#08021E"/><stop offset="1" stop-color="#1F0777"/></linearGradient></defs></svg>
